X: 55
M: 3/4
L: 1/8
K: Am
|:\
c2^G2A2 | E2C2F2 | DFEDCB, | A,6 :|
e2c2c2 | d4G2 | cedfeg | e3def |\
g2c2d2 | BAG2c2 | d2B4 | c3edB "D.C."|]

